public/images/54x54_Verified_Check.svg

<svg width="55" height="55" viewBox="0 0 55 55" fill="none" xmlns="http://www.w3.org/2000/svg">
<path fill-rule="evenodd" clip-rule="evenodd" d="M8.48223 46.7073C7.39664 45.6264 6.85526 43.9605 6.85814 41.7096V36.8327C6.8693 36.41 6.71466 35.9999 6.42734 35.69L2.981 32.2403C1.37846 30.6564 0.577148 29.0983 0.577148 27.5661C0.577148 26.0338 1.36838 24.4786 2.95082 22.9004L6.39716 19.4508C6.68527 19.1414 6.84004 18.7309 6.82795 18.3081L6.82795 13.4182C6.82795 11.1501 7.36932 9.47985 8.45205 8.40759C9.53477 7.33532 11.1876 6.79776 13.4105 6.79488L18.3128 6.79488C18.5176 6.80189 18.7217 6.7673 18.9128 6.69319C19.1038 6.61908 19.2778 6.50698 19.4243 6.36368L22.9138 2.91403C24.4991 1.34732 26.0527 0.559659 27.5749 0.551034C29.097 0.54241 30.6508 1.33007 32.2361 2.91403L35.6824 6.36368C35.834 6.50867 36.0132 6.6216 36.2093 6.69569C36.4055 6.76978 36.6145 6.80351 36.824 6.79488H41.6963C43.9421 6.79488 45.605 7.33677 46.6849 8.42054C47.7647 9.5043 48.3061 11.1702 48.309 13.4182V18.2951C48.2969 18.7179 48.4517 19.1285 48.7398 19.4378L52.1861 22.8875C53.7686 24.4686 54.5655 26.0238 54.577 27.5531C54.5885 29.0825 53.7915 30.6362 52.1861 32.2145L48.7398 35.6641C48.4525 35.974 48.2978 36.3842 48.309 36.8068V41.6837C48.309 43.9289 47.7633 45.5948 46.6719 46.6814C45.5806 47.768 43.922 48.3099 41.6963 48.3071H36.824C36.6144 48.2977 36.4052 48.3311 36.2089 48.4052C36.0127 48.4793 35.8336 48.5927 35.6824 48.7383L32.2361 52.1879C30.6508 53.7546 29.097 54.5423 27.5749 54.5509C26.0527 54.5595 24.4991 53.7719 22.9138 52.1879L19.4243 48.7383C19.2782 48.5943 19.1042 48.4818 18.9131 48.4077C18.7219 48.3335 18.5177 48.2993 18.3128 48.3071H13.4105C11.2077 48.3243 9.56496 47.791 8.48223 46.7073ZM25.225 37.9942C26.0971 37.9942 26.848 37.5581 27.3567 36.783L38.1848 19.8505C38.4997 19.3418 38.7904 18.7604 38.7904 18.2033C38.7904 17.0163 37.7245 16.2169 36.586 16.2169C35.8593 16.2169 35.2052 16.6045 34.6965 17.4281L25.1281 32.786L20.6225 27.045C20.0411 26.294 19.4597 26.0276 18.733 26.0276C17.5461 26.0276 16.6255 26.9723 16.6255 28.1835C16.6255 28.7649 16.8436 29.2978 17.2554 29.8065L22.9722 36.783C23.6262 37.6308 24.3287 37.9942 25.225 37.9942Z" fill="white"/>
</svg>

<svg xmlns="http://www.w3.org/2000/svg" width="55" height="55" fill="none" xmlns:v="https://vecta.io/nano"><path fill-rule="evenodd" d="M8.482 46.707c-1.086-1.081-1.627-2.747-1.624-4.998v-4.877a1.62 1.62 0 0 0-.431-1.143l-3.446-3.45C1.378 30.656.577 29.098.577 27.566s.791-3.087 2.374-4.666l3.446-3.45a1.61 1.61 0 0 0 .431-1.143v-4.89c0-2.268.541-3.938 1.624-5.011s2.736-1.61 4.958-1.613h4.902c.205.007.409-.028.6-.102s.365-.186.511-.33l3.489-3.45C24.499 1.347 26.053.56 27.575.551s3.076.779 4.661 2.363l3.446 3.45a1.56 1.56 0 0 0 1.142.431h4.872c2.246 0 3.909.542 4.989 1.626s1.621 2.75 1.624 4.998v4.877a1.61 1.61 0 0 0 .431 1.143l3.446 3.45c1.582 1.581 2.379 3.136 2.391 4.666s-.785 3.083-2.391 4.661l-3.446 3.45a1.62 1.62 0 0 0-.431 1.143v4.877c0 2.245-.546 3.911-1.637 4.998s-2.75 1.629-4.976 1.626h-4.872c-.21-.009-.419.024-.615.098s-.375.188-.526.333l-3.446 3.45c-1.585 1.567-3.139 2.354-4.661 2.363s-3.076-.779-4.661-2.363l-3.489-3.45a1.5 1.5 0 0 0-1.111-.431h-4.902c-2.203.017-3.846-.516-4.928-1.6zm16.743-8.713c.872 0 1.623-.436 2.132-1.211l10.828-16.932c.315-.509.606-1.09.606-1.647 0-1.187-1.066-1.986-2.204-1.986-.727 0-1.381.388-1.889 1.211l-9.568 15.358-4.506-5.741c-.581-.751-1.163-1.017-1.889-1.017-1.187 0-2.108.945-2.108 2.156 0 .581.218 1.114.63 1.623l5.717 6.977c.654.848 1.357 1.211 2.253 1.211z" fill="#fff"/></svg>
